X:1
T:I Will Set My Ship In Order
M:3/4
L:1/8
K:C
 c3/2 A/2| d2 AA G/2 E3/2| D2 EG c3/2 A/2| d2 A3/2- A/2 GG| A2 z2 AG|\
 F3/2 D/2 E2 EG| FE D2 EG| Ac A2 EG| E3/2 C/2 D2||
